X: 29691
T: Nothing Can Sadden Us
R: jig
M: 6/8
K: Gmajor
G/A/|BGB AFA|GAG GBd|efg dcB|BAA A2 d/c/|
BGB AFA|GAG GBd|efg dBd|GAG G2:|z
|:B2 d ded|ded efg|dcB BAG|FGA ABc|
B2 d ded|ded efg|dcB BAG|c2 B ABc||

